icons/box-chart-series-24.svg

<svg xmlns="http://www.w3.org/2000/svg" viewBox="0 0 24 24"><path d="M14 15V6h5v9z" opacity=".25"/><path d="M23 22v1H1V1h1v21zm-7-6h-3V5h3V3h-1V2h3v1h-1v2h3v11h-3v3h1v1h-3v-1h1zm-2-8h5V6h-5zm5 7V9h-5v6zM7 15H4V7h3V4H6V3h3v1H8v3h3v8H8v3h1v1H6v-1h1zm-2-4h5V8H5zm5 3v-2H5v2z"/><path fill="none" d="M0 0h24v24H0z"/></svg>

<svg id="icons" xmlns="http://www.w3.org/2000/svg" viewBox="0 0 24 24"><defs><style>.cls-1{opacity:0.25;}.cls-2{fill:none;}</style></defs><path class="cls-1" d="M14,15V6h5v9Z"/><path d="M23,22v1H1V1H2V22Zm-7-6H13V5h3V3H15V2h3V3H17V5h3V16H17v3h1v1H15V19h1ZM14,8h5V6H14Zm5,7V9H14v6ZM7,15H4V7H7V4H6V3H9V4H8V7h3v8H8v3H9v1H6V18H7ZM5,11h5V8H5Zm5,3V12H5v2Z"/><rect class="cls-2" width="24" height="24"/></svg>
